X:212
T:New Scotch Sett No.2. Le4.212
M:2/4
L:1/8
Q:2/4=50
N: B3/2 d3/2 in Mss
B:L.Leadley MS#4 c1850
Z:Village Music Project 2016 Steve Mansfield
K:C
E>FGe | edcB | G>AGE | A2 D2 |
E>FGe | e>dcA | Gcde | c2 c2 ||
e>eed | ^cedf | d>dd=c | Bdce |
(e2B)(B | c2) c^c | d2 AA | "*" B2 d2 ||
(d2 c2) | (B2 A2) | G3 G/F/ | G3 G/F/ |
E>FGA | G>AG>c | e>fd>e | c3 !D.C.! |]

